X:1
T:I Am Thine, O Lord
T:Text: Fanny J. Crosby (1820-1915) Tune: William H. Doane (1832-1915)
T:10 7 10 7 Refrain I AM THINE www.hymnary.org/text/i_am_thine_o_lord_i_have_heard_thy_voice
T:I Am Thine, O Lord
T:This hymn is in the public domain.  You may freely use this score for personal and congregational worship.  If you reproduce the score, please credit Hymnary.org as the source. 
T:This hymn is in the public domain.  You may freely use this score for personal and congregational worship.  If you reproduce the score, please credit Hymnary.org as the source. 
Z:This hymn is in the public domain.  You may freely use this score for personal and congregational worship.  If you reproduce the score, please credit Hymnary.org as the source.
%%score ( 1 2 ) ( 3 4 )
L:1/8
M:4/4
K:G
V:1 treble nm="Piano" snm="Pno."
V:2 treble 
V:3 bass nm="Piano" snm="Pno."
V:4 bass 
V:1
 [DB]>[Ec] | [DB]2 [CA]2 [CA]2 [CA]>[DB] | [CA]2 [B,G]2 [B,G]2 [DG]>[DF] | [CE]2 [CE]2 | %4
w: 3~O the|pure de- light of a|sin- gle hour that be-|fore thy|
w: 1~I am|thine, O Lord— I have|heard thy voice, and it|told thy|
w: 2~Con- se-|crate me now to thy|ser- vice, Lord, by the|power of|
 [CE]2 (G>E) | [B,D]6 [DB]>[Ec] | [DB]2 [CA]2 [CA]2 [CA]>[DB] | [CA]2 [B,G]2 [B,G]2 | [CA][DB] | %9
w: throne I _|spend, when I|kneel in prayer and with|thee, my God,|I com-|
w: love to _|me; but I|long to rise in the|arms of faith,|and be|
w: grace di- *|vine; let my|soul look up with a|stead- fast hope,|and my|
 [Ec]2 [Ec]2 [DF]2 [CF]2 | [B,G]6 ||"^Refrain" [DB]>[Dc] | [Gd]4 [DB]4 | [EA][EG][DF][CE] [B,D]2 | %14
w: mune as friend with|friend.|Draw me|nea- rer,|nea- rer, bles- sed Lord,|
w: clo- ser drawn to|thee.||||
w: will be lost in|thine.||||
 [DG][DF] | [CE]2 [DG]2 [Dc]2 [DB]2 | [DA]6 [DB]>[Dc] | [Gd]2 [Gd]2 [DB]2 [DB]2 | %18
w: to the|cross where thou hast|died; draw me|nea- rer, nea- rer,|
w: ||||
w: ||||
 [EA][EG][DF][CE] [Ec]2 [EB][EA] | [DG]2 [B,G]2 [DB]3 [CA] | [B,G]6 |] %21
w: nea- rer, bles- sed Lord, to thy|pre- cious, bleed- ing|side.|
w: |||
w: |||
V:2
 x2 | x8 | x8 | x4 | x2 C2 | x8 | x8 | x6 | x2 | x8 | x6 || x2 | x8 | x6 | x2 | x8 | x8 | x8 | x8 | %19
 x8 | x6 |] %21
V:3
 [G,,G,]>[G,,G,] | [D,G,]2 [D,F,]2 [D,F,]2 [D,F,]>[D,F,] | %2
 [G,,G,]2 [G,,D,]2 [G,,D,]2 [B,,G,]>[B,,G,] | [C,G,]2 [C,G,]2 | [C,G,]2 (E,>G,) | %5
 [G,,G,]6 [G,,G,]>[G,,G,] | [D,G,]2 [D,F,]2 [D,F,]2 [D,F,]>[D,F,] | [G,,G,]2 [G,,D,]2 [G,,D,]2 | %8
 [G,,G,][G,,G,] | [C,G,]2 [A,,A,]2 [D,A,]2 [D,A,]2 | [G,,G,]6 || G,>A, | [G,B,]4 [G,,G,]4 | %13
 [C,G,][C,G,][C,G,][C,G,] [G,,G,]2 | [B,,G,][B,,G,] | [C,G,]2 [B,,G,]2 [A,,F,]2 [G,,G,]2 | %16
 [D,F,]6 G,>A, | [G,B,]2 [G,B,]2 [G,,G,]2 [G,,G,]2 | [C,G,][C,G,][C,G,][C,G,] [C,G,]2 [C,D][C,C] | %19
 [D,B,]2 [D,G,]2 [D,F,]3 [D,F,] | [G,,D,]6 |] %21
V:4
 x2 | x8 | x8 | x4 | x2 C,2 | x8 | x8 | x6 | x2 | x8 | x4 x2 || G,>G, | x8 | x6 | x2 | x8 | %16
 x4 x2 G,>G, | x8 | x8 | x8 | x6 |] %21

